label-outline.svg

<svg fill="currentColor" viewBox="0 0 24 24"><path d="M16 17H5V7h11l3.55 5m-1.92-6.16C17.27 5.33 16.67 5 16 5H5a2 2 0 0 0-2 2v10a2 2 0 0 0 2 2h11c.67 0 1.27-.34 1.63-.85L22 12z"/></svg>

<svg  viewBox="0 0 24 24" fill="currentColor"><path  d="M16,17H5V7H16L19.55,12M17.63,5.84C17.27,5.33 16.67,5 16,5H5A2,2 0 0,0 3,7V17A2,2 0 0,0 5,19H16C16.67,19 17.27,18.66 17.63,18.15L22,12L17.63,5.84Z"/></svg>
